!!!COM: Music21
!!!OTL: strathspey_Miss-Mariane-Oliphant
!!!OMV: strathspey_Miss-Mariane-Oliphant
**kern
*clefG2
*k[f#]
*G:
*M4/4
=1
8d
=
8.GL
16BJk
8.dL
16fnJk
16eKL
8.cJ
8cL
16BL
16cJJ
=
8.dL
16f#Jk
8.aL
16ccJk
16bKL
8.gJ
8gL
16f#L
16gJJ
=
8.GL
16BJk
8.dL
16fnJk
16eKL
8.cJ
8.ccL
16eeJk
!!linebreak:original
=
8ddL
16ccL
16bJJ
8ccL
16bL
16aJJ
8.bL
16gJk
8.gL
16dJk
=||
*M4/4
8d
=
8.GL
16BJk
8.dL
16fnJk
16eKL
8.cJ
8cL
16BL
16cJJ
=
8.dL
16f#Jk
8.aL
16ccJk
16bKL
8.gJ
8gL
16f#L
16gJJ
!!linebreak:original
=
8.GL
16BJk
8.dL
16fnJk
16eKL
8.cJ
8.ccL
16eeJk
=
8ddL
16ccL
16bJJ
8ccL
16bL
16aJJ
8.bL
16gJk
8.gL
32ggLL
[32aaJJJ
=||
*M1/32
32aa]
=||
*M4/4
12bbL
12aa
12ggJ
12ggL
12aa
12bbJ
16aaKL
8.ddJ
16ff#KL
8.aaJ
!!linebreak:original
=
8.ggL
16ff#Jk
16ggLL
16ff#
16ee
16ddJJ
16ff#KL
8.bJ
8bL
16ccL
16ddJJ
=
8.ccL
16eeJk
8.ggL
16ccJk
8.bL
16ddJk
8.ggL
16bJk
=
8.aL
16eeJk
16ddKL
8.f#J
4g
8gL
16ggL
16aaJJ
=||
*M4/4
12bbL
12aa
12ggJ
12ggL
12aa
12bbJ
16aaKL
8.ddJ
16ff#KL
8.aaJ
!!linebreak:original
=
8.ggL
16ff#Jk
16ggLL
16ff#
16ee
16ddJJ
16ff#KL
8.bJ
8bL
16ccL
16ddJJ
=
8.ccL
16cccJk
8.aaL
16ccJk
8.bL
16ddJk
8.ggL
16bJk
=
16aKL
8.aaJ
16ff#KL
8.ddJ
4gg
8gg
8ryy
=||
*-
